X:050
U: ~ = !turn!
%%topmargin 3cm
T:Denis Ryan Reel
B:Traditional Irish Fiddle Tunes. Randy Miller and Jack Perron.
Z:Transcribed by Ralph Palmer
S:Denis Ryan, P. J. Hernon
R:Reel
L:1/8
M:C|
K:DAeo
A,D (3.D.D.D DEFG | Ad ~d2 cAGE | ~C3 E DECA, | G,A,CE DCA,G, |
CDEC DEFG | Ad ~d2 cAGE | CDEG cAGE | [1 DFEC D3 C :| [2 DFEC D2 ||
|: FG | Ad ~d2 edcA | d2 ed cAGE | GEGA cgec | dcde c2 AG |
Ad ~d2 edcA | d2 ed cAGE | CDEG cAGE | DFEC D2 :|]
